assets/Waning gibbous moon/Flat/waning_gibbous_moon_flat.svg

<svg width="32" height="32" viewBox="0 0 32 32" fill="none" xmlns="http://www.w3.org/2000/svg">
<path d="M30 16C30 23.2253 24.5266 29.1721 17.5 29.9206C17.0072 29.9731 16.5067 29 16 29C8.26801 29 5 23.732 5 16C5 8.26802 8.26801 4.00001 16 4.00001C16.4581 4.00001 16.9111 2.02201 17.3579 2.06502C24.4527 2.7479 30 8.72614 30 16Z" fill="#8D65C5"/>
<path d="M22.5 14C23.8807 14 25 12.8807 25 11.5C25 10.1193 23.8807 9 22.5 9C21.1193 9 20 10.1193 20 11.5C20 12.8807 21.1193 14 22.5 14ZM24.8816 26.8226C26.658 25.3631 28.0686 23.4748 28.9554 21.316C28.5122 21.1131 28.0193 21 27.5 21C25.567 21 24 22.567 24 24.5C24 25.3912 24.3331 26.2047 24.8816 26.8226Z" fill="#6B438B"/>
<path d="M17.3996 2.06908C16.9393 2.02339 16.4724 2 16 2C8.26801 2 2 8.26801 2 16C2 23.732 8.26801 30 16 30C16.4723 30 16.9391 29.9766 17.3994 29.9309C21.4288 26.6299 24 21.6152 24 15.9999C24 15.2474 23.9538 14.5057 23.8641 13.7775C22.7705 13.3297 22 12.2548 22 10.9999C22 10.2971 22.2417 9.65079 22.6464 9.13945C21.5024 6.36656 19.6857 3.942 17.3996 2.06908Z" fill="#FCD53F"/>
<path d="M17 5.5C17 6.32843 16.3284 7 15.5 7C14.6716 7 14 6.32843 14 5.5C14 4.67157 14.6716 4 15.5 4C16.3284 4 17 4.67157 17 5.5ZM19 21.5C19 22.8807 17.8807 24 16.5 24C15.1193 24 14 22.8807 14 21.5C14 20.1193 15.1193 19 16.5 19C17.8807 19 19 20.1193 19 21.5ZM13 12.5C13 10.567 11.433 9 9.5 9C7.567 9 6 10.567 6 12.5C6 14.433 7.567 16 9.5 16C11.433 16 13 14.433 13 12.5ZM22.5889 9.00155C22.5594 9.00052 22.5297 9 22.5 9C21.1193 9 20 10.1193 20 11.5C20 12.8807 21.1193 14 22.5 14C22.9306 14 23.3358 13.8911 23.6896 13.6994C22.6894 13.2129 22 12.1869 22 10.9999C22 10.2971 22.2417 9.65079 22.6464 9.13945C22.6274 9.09339 22.6082 9.04742 22.5889 9.00155ZM4.75012 24.3346C6.15381 26.2261 8.02324 27.7514 10.1888 28.7407C10.6953 28.1336 11 27.3524 11 26.5C11 24.567 9.433 23 7.50001 23C6.38459 23 5.39104 23.5218 4.75012 24.3346Z" fill="#F9C23C"/>
</svg>

<svg xmlns="http://www.w3.org/2000/svg" width="32" height="32" fill="none"><path fill="#8D65C5" d="M30 16c0 7.225-5.473 13.172-12.5 13.92-.493.053-.993-.92-1.5-.92-7.732 0-11-5.268-11-13S8.268 4 16 4c.458 0 .911-1.978 1.358-1.935C24.453 2.748 30 8.726 30 16Z"/><path fill="#6B438B" d="M22.5 14a2.5 2.5 0 1 0 0-5 2.5 2.5 0 0 0 0 5Zm2.382 12.823a14.04 14.04 0 0 0 4.073-5.507 3.5 3.5 0 0 0-4.074 5.507Z"/><path fill="#FCD53F" d="M17.4 2.07C16.94 2.022 16.472 2 16 2 8.268 2 2 8.268 2 16s6.268 14 14 14c.472 0 .94-.023 1.4-.07C21.428 26.63 24 21.616 24 16c0-.753-.046-1.494-.136-2.223a3.001 3.001 0 0 1-1.218-4.638A18.05 18.05 0 0 0 17.4 2.07Z"/><path fill="#F9C23C" d="M17 5.5a1.5 1.5 0 1 1-3 0 1.5 1.5 0 0 1 3 0Zm2 16a2.5 2.5 0 1 1-5 0 2.5 2.5 0 0 1 5 0Zm-6-9a3.5 3.5 0 1 0-7 0 3.5 3.5 0 0 0 7 0Zm9.589-3.498a2.5 2.5 0 1 0 1.1 4.698 3 3 0 0 1-1.043-4.56 21.259 21.259 0 0 0-.057-.138ZM4.75 24.335a14.054 14.054 0 0 0 5.439 4.406 3.5 3.5 0 1 0-5.439-4.406Z"/></svg>
